shared/.icons/Vimix-White/symbolic/actions/contact-new-symbolic.svg

<?xml version="1.0" encoding="UTF-8"?>
<svg width="16" height="16" version="1.1" xmlns="http://www.w3.org/2000/svg">
 <path d="m8 4.01c1.1 0 2 0.895 2 2s-0.9 2-2 2-2-0.895-2-2 0.9-2 2-2zm0 5c4-2e-3 4 2.668 4 2.668v0.332h-8v-0.332s0-2.666 4-2.668z" fill="#555"/>
 <path d="m3.0098 1c-1.1135 0-2.0098 0.89623-2.0098 2.0098v9.9805c0 1.1135 0.89623 2.0098 2.0098 2.0098h9.9805c1.1135 0 2.0098-0.89623 2.0098-2.0098v-9.9805c0-1.1135-0.89623-2.0098-2.0098-2.0098h-9.9805zm-0.0097656 2h10v10h-10v-10z" fill="#555" stroke-linecap="round" stroke-linejoin="round" stroke-width="2"/>
</svg>

<svg xmlns="http://www.w3.org/2000/svg" width="16" height="16" version="1.1">
 <path style="fill:#555555" d="M 3,1.01 C 1.89,1.01 1,1.902 1,3.01 V 13.01 C 1,14.118 1.89,15.01 3,15.01 H 13 C 14.11,15.01 15,14.118 15,13.01 V 3.01 C 15,1.902 14.11,1.01 13,1.01 Z M 8,4.01 C 9.1,4.01 10,4.905 10,6.01 10,7.115 9.1,8.01 8,8.01 6.9,8.01 6,7.115 6,6.01 6,4.905 6.9,4.01 8,4.01 Z M 8,9.01 C 12,9.008 12,11.678 12,11.678 V 12.01 H 4 V 11.678 C 4,11.678 4,9.012 8,9.01 Z"/>
</svg>
